!!!!SEGMENT:Yukiai.krn
!!!OTL: 雪合
!!!OPR:Eiga Banso Kyokusyu,jidai-geki,kouhen
!!!YOY:1928
!!!ONB: Daigekitou
**kern
*clefG2
*k[]
*C:
*M2/4
=1
8f#X
8r
8f#L
8f#J
=2
8BL
8f#XJ
8f#
8r
=3
8e
8r
8eL
8eJ
=4||
*M3/4
8BL
8eJ
8e
8r
4r
=5||
*M2/4
8fL
8e
8d
8eJ
=6
8fL
8e
8d
8eJ
=7
8f
8r
8.aL
16fJk
=8
8aL
8aJ
8r
8b
=9
8ccL
8bJ
8aL
8fJ
=10
8e
8r
8cc
8r
=11
8cc
8r
8r
16ccLL
16bJJ
=12
8ccL
8ee
8cc
8bJ
=13
8aL
8f
8a
8bJ
=14
8ccL
8bJ
8aL
8fJ
=15
8e
8r
8aL
8fJ
=16
8eL
8eJ
8eL
8BJ
=17
8B
8r
8.eL
16BJk
=18
8BL
8eJ
8BL
8bJ
=19
8b
8r
8BL
8bJ
=20
8b
8r
8b
8r
=21
4b
4r
==
*-
